X:1
T:Title
%%score { ( 1 3 4 ) | ( 2 5 ) }
L:1/8
Q:1/4=100
M:6/8
K:F
V:1 treble nm="Grand Piano"
V:3 treble 
V:4 treble 
V:2 bass 
V:5 bass 
V:1
 [CAc]>[CGB][CFA] [B,EG][A,F][CEG] | AFD C3 | F>FF GFA | [Ec]6 | %4
w: D.~O.~Teasley * * * * *||||
 [CAc]>[CGB][CFA] [B,EG][A,F][CEG] | [CFA][A,CF][K:bass][B,D] [A,C]3 | %6
w: ||
 [F,A,C]>[K:treble][A,CF][CEA] [B,CG][A,CF][B,CG] | [A,CF]6 | [DFB]>[DFB][DFB] .[DFB]3 | %9
w: |||
 [CFA]>[CFA][CFA] .[CFA]3 | [CAc]>[CGB]A GFA | [Ec]6 | [EB]>[EB][EB] .[EB]3 | A>AA .A3 | %14
w: |||||
[M:27/32] z/4 z/4 z/4 z/4 z/4 z/4 z/4 z/4 z/4 z/4 z/4 z/4 z/ A/4-A/4-A/4-A/4-A/4-A/4-A/-<A/ z/4 z/ | %15
w: |
[M:3/4] z6 |] %16
w: |
V:2
 F,>F,F, C,C,C, | [F,CF][F,A,C][F,B,] [F,A,]3 | [F,A,C]>[F,A,C][F,A,C] [F,B,C][F,A,C][F,F] | %3
 [C,G,]6 | F,>F,F, C,C,C, | F,F,F, F,3 | C,>C,C, C,C,C, | F,6 | B,,>B,,B,, .B,,3 | F,>F,F, .F,3 | %10
 F,>F,[F,CF] [F,B,C][F,A,C][F,F] | [C,G,]6 | [C,C]>[C,C][C,C] .[C,C]3 | %13
 [F,CF]>[F,CF][F,CF] .[F,CF]3 | %14
[M:27/32] [C,C]/4-[C,C]/4-[C,C]/-<[C,C]/[C,B,]/[C,A,C]/-<[C,A,C]/[C,F,A,]/F,/4-F,/4-F,/4-F,/4-F,/-<F,/-[F,C-]/C3/4 | %15
[M:3/4] [F,A,C]4- [F,A,C]-[F,A,C]/4 z/4 z/ |] %16
V:3
 x6 | x6 | x6 | x6 | x6 | x2[K:bass] x4 | x3/2[K:treble] x9/2 | x6 | x6 | x6 | x6 | x6 | x6 | x6 | %14
[M:27/32] z/4 z/4 z/4 z/4 z/4 z/4 z/4 z/4 z/4 z/4 z/4 z/4 z/4 z/4 z/4 z/4 z/4 z/4 z/4 z/4 z/ G/4-G/-<G/- | %15
[M:3/4] G3/4 z/4 z z2 z2 |] %16
V:4
 x6 | x6 | x6 | x6 | x6 | x2[K:bass] x4 | x3/2[K:treble] x9/2 | x6 | x6 | x6 | x6 | x6 | x6 | x6 | %14
[M:27/32] [FA]/4-[FA]/4-[FA]/-<[FA]/[FG]/F/-<F/C/ z/4 z/4 z/4 z/4 z/4 z/4 z/4 z/4 z/4 z/4 z/4 z/ | %15
[M:3/4] F4- F-F/4 z/4 z/ |] %16
V:5
 x6 | x6 | x6 | x6 | x6 | x6 | x6 | x6 | x6 | x6 | x6 | x6 | x6 | x6 | %14
[M:27/32] z/4 z/4 z/4 z/4 z/4 z/4 z/4 z/4 z/4 z/4 z/4 z/4 z/ [C,C]/4-[C,C]/4-[C,C]/4-[C,C]/4-[C,C]/-<[C,C]/[C,B,]/4-[C,B,]/-<[C,B,]/- | %15
[M:3/4] [C,B,]3/4 z/4 z z2 z2 |] %16

